img/logos/ibm.svg

<?xml version="1.0" encoding="UTF-8" standalone="no"?>
<svg width="99px" height="41px" viewBox="0 0 99 41" version="1.1" xmlns="http://www.w3.org/2000/svg" xmlns:xlink="http://www.w3.org/1999/xlink">
    <!-- Generator: Sketch 45 (43475) - http://www.bohemiancoding.com/sketch -->
    <title>ibm</title>
    <desc>Created with Sketch.</desc>
    <defs></defs>
    <g id="Page-1" stroke="none" stroke-width="1" fill="none" fill-rule="evenodd" opacity="0.597423041">
        <g id="Envoy-R2" transform="translate(-793.000000, -1010.000000)" fill-rule="nonzero" fill="#222222">
            <g id="Group-22" transform="translate(298.000000, 1005.000000)">
                <g id="ibm" transform="translate(495.000000, 5.000000)">
                    <path d="M0,0 L0,2.8051175 L19.270152,2.8051175 L19.270152,0 L0,0 Z M22.000374,0 L22.000374,2.8051175 L49.461291,2.8051175 C49.461291,2.8051175 46.656324,0 42.94125,0 L22.000374,0 Z M54.848277,0 L54.848277,2.8051175 L71.461665,2.8051175 L70.475625,0 L54.848277,0 Z M83.372652,0 L82.386513,2.8051175 L98.849124,2.8051175 L98.849124,0 L83.372652,0 Z M0,5.455255 L0,8.2603725 L19.270152,8.2603725 L19.270152,5.455255 L0,5.455255 Z M22.000374,5.4592525 L22.000374,8.260475 L52.647804,8.260475 C52.647804,8.260475 52.289919,6.1015175 51.665526,5.4592525 L22.000374,5.4592525 Z M54.848277,5.4592525 L54.848277,8.260475 L73.283166,8.260475 L72.370485,5.4592525 L54.848277,5.4592525 Z M81.400374,5.4592525 L80.487693,8.260475 L98.849124,8.260475 L98.849124,5.4592525 L81.400374,5.4592525 L81.400374,5.4592525 Z M5.537763,10.91051 L5.537763,13.719625 L13.883166,13.719625 L13.883166,10.91051 L5.537763,10.91051 L5.537763,10.91051 Z M27.538236,10.91051 L27.538236,13.719625 L35.883639,13.719625 L35.883639,10.91051 L27.538236,10.91051 L27.538236,10.91051 Z M44.000847,10.91051 L44.000847,13.719625 L52.34625,13.719625 C52.34625,13.719625 52.876098,12.2361425 52.876098,10.91051 L44.000847,10.91051 L44.000847,10.91051 Z M60.386139,10.91051 L60.386139,13.719625 L75.181986,13.719625 L74.195847,10.91051 L60.386139,10.91051 L60.386139,10.91051 Z M79.582833,10.91051 L78.592833,13.719625 L93.462138,13.719625 L93.462138,10.91051 L79.582833,10.91051 L79.582833,10.91051 Z M5.537763,16.369865 L5.537763,19.1749825 L13.883166,19.1749825 L13.883166,16.369865 L5.537763,16.369865 L5.537763,16.369865 Z M27.538236,16.369865 L27.538236,19.1749825 L48.854124,19.1749825 C48.854124,19.1749825 50.637312,17.7356775 51.205374,16.369865 L27.538236,16.369865 Z M60.386139,16.369865 L60.386139,19.1749825 L68.731542,19.1749825 L68.731542,17.6134975 L69.26139,19.1749825 L84.548376,19.1749825 L85.116834,17.6134975 L85.116834,19.1749825 L93.462237,19.1749825 L93.462237,16.369865 L77.79618,16.369865 L76.964778,18.745815 L76.129416,16.369865 L60.386139,16.369865 Z M5.537763,21.82512 L5.537763,24.6302375 L13.883166,24.6302375 L13.883166,21.82512 L5.537763,21.82512 Z M27.538236,21.82512 L27.538236,24.6302375 L51.205374,24.6302375 C50.637213,23.268935 48.854124,21.82512 48.854124,21.82512 L27.538236,21.82512 Z M60.386139,21.82512 L60.386139,24.6302375 L68.731542,24.6302375 L68.731542,21.82512 L60.386139,21.82512 Z M70.24743,21.82512 L71.256735,24.6302375 L82.719054,24.6302375 L83.678166,21.82512 L70.24743,21.82512 Z M85.116735,21.82512 L85.116735,24.6302375 L93.462138,24.6302375 L93.462138,21.82512 L85.116735,21.82512 Z M5.537763,27.280375 L5.537763,30.08539 L13.883166,30.08539 L13.883166,27.280375 L5.537763,27.280375 Z M27.538236,27.280375 L27.538236,30.08539 L35.883639,30.08539 L35.883639,27.280375 L27.538236,27.280375 Z M44.000847,27.280375 L44.000847,30.08539 L52.875999,30.08539 C52.875999,28.7616025 52.346151,27.280375 52.346151,27.280375 L44.000847,27.280375 L44.000847,27.280375 Z M60.386139,27.280375 L60.386139,30.08539 L68.731542,30.08539 L68.731542,27.280375 L60.386139,27.280375 Z M72.142389,27.280375 L73.120806,30.08539 L80.804889,30.08539 L81.791028,27.280375 L72.142389,27.280375 Z M85.116735,27.280375 L85.116735,30.08539 L93.462138,30.08539 L93.462138,27.280375 L85.116735,27.280375 Z M0.150777,32.73563 L0.150777,35.544745 L19.420929,35.544745 L19.420929,32.73563 L0.150777,32.73563 Z M22.000374,32.73563 L22.000374,35.544745 L51.665526,35.544745 C52.289919,34.9015575 52.647804,32.73563 52.647804,32.73563 L22.000374,32.73563 L22.000374,32.73563 Z M54.999153,32.73563 L54.999153,35.544745 L68.731542,35.544745 L68.731542,32.73563 L54.999153,32.73563 Z M74.04111,32.73563 L75.046554,35.544745 L78.956262,35.544745 L79.899831,32.73563 L74.04111,32.73563 Z M85.116735,32.73563 L85.116735,35.544745 L99,35.544745 L99,32.73563 L85.116735,32.73563 Z M0.150777,38.1948825 L0.150777,41 L19.420929,41 L19.420929,38.1948825 L0.150777,38.1948825 Z M22.000374,38.1948825 L22.000374,40.9960025 L42.94125,40.9960025 C46.656324,40.9960025 49.461291,38.1948825 49.461291,38.1948825 L22.000374,38.1948825 Z M54.999153,38.1948825 L54.999153,41 L68.731542,41 L68.731542,38.1948825 L54.999153,38.1948825 Z M75.947652,38.1948825 L76.914486,40.9921075 L77.080806,40.9960025 L78.063084,38.1948825 L75.947652,38.1948825 L75.947652,38.1948825 Z M85.116735,38.1948825 L85.116735,41 L99,41 L99,38.1948825 L85.116735,38.1948825 Z" id="Shape"></path>
                </g>
            </g>
        </g>
    </g>
</svg>

<svg width="99" height="41" xmlns="http://www.w3.org/2000/svg"><path d="M0 0v2.805h19.27V0H0zm22 0v2.805h27.461S46.656 0 42.941 0H22zm32.848 0v2.805h16.613L70.475 0H54.848zm28.524 0-.986 2.805h16.463V0H83.373zM-.001 5.455V8.26h19.27V5.455H-.001zm22 .004V8.26h30.647s-.358-2.159-.982-2.8H21.999zm32.848 0V8.26h18.435l-.913-2.8H54.847zm26.552 0-.913 2.801h18.361v-2.8H81.398zM5.536 10.911v2.809h8.345v-2.81H5.536zm22 0v2.809h8.345v-2.81h-8.345zm16.463 0v2.809h8.345s.53-1.484.53-2.81H44zm16.385 0v2.809H75.18l-.986-2.81h-13.81zm19.197 0-.99 2.809H93.46v-2.81H79.581zM5.536 16.37v2.805h8.345V16.37H5.536zm22 0v2.805h21.316s1.783-1.44 2.351-2.805H27.536zm32.848 0v2.805h8.345v-1.561l.53 1.561h15.287l.569-1.561v1.561h8.345V16.37H77.794l-.831 2.376-.836-2.376H60.384zM5.536 21.825v2.805h8.345v-2.805H5.536zm22 0v2.805h23.667c-.568-1.36-2.351-2.805-2.351-2.805H27.536zm32.848 0v2.805h8.345v-2.805h-8.345zm9.861 0 1.01 2.805h11.462l.959-2.805H70.245zm14.87 0v2.805h8.345v-2.805h-8.346zm-79.58 5.456v2.805h8.346V27.28H5.535zm22 0v2.805h8.346V27.28h-8.346zm16.463 0v2.805h8.876c0-1.324-.53-2.805-.53-2.805h-8.346zm16.385 0v2.805h8.346V27.28h-8.346zm11.756 0 .979 2.805h7.684l.986-2.805h-9.649zm12.974 0v2.805h8.346V27.28h-8.346zM.147 32.736v2.809h19.27v-2.81H.147zm21.85 0v2.809h29.665c.625-.643.983-2.81.983-2.81H21.998zm33 0v2.809h13.731v-2.81H54.996zm19.041 0 1.006 2.809h3.91l.943-2.81h-5.859zm11.076 0v2.809h13.883v-2.81H85.114zM.148 38.196V41h19.27v-2.805H.148zm21.85 0v2.8H42.94c3.715 0 6.52-2.8 6.52-2.8H22zm33 0V41h13.731v-2.805H54.997zm20.947 0 .967 2.796.166.004.983-2.8h-2.116zm9.17 0V41h13.882v-2.805H85.114z" fill="#222" fill-rule="nonzero" opacity=".597"/></svg>
